img/i_hint_cs.svg

<svg width="12" height="12" viewBox="0 0 12 12" fill="none" xmlns="http://www.w3.org/2000/svg">
<path d="M3.5355 7.1508C3.05977 6.77925 2.67446 6.30469 2.40852 5.7628C2.1426 5.22097 2.00295 4.62592 2.00006 4.02237C1.98816 1.85332 3.73424 0.0523502 5.90357 0.00115354C6.74341 -0.0190152 7.56854 0.225734 8.26147 0.700705C8.95447 1.17572 9.48031 1.85689 9.76439 2.64758C10.0485 3.43826 10.0764 4.29833 9.84417 5.10577C9.61194 5.91321 9.13138 6.62704 8.47064 7.14599L8.46818 7.14791C8.39616 7.2037 8.33777 7.27514 8.29743 7.35682C8.25726 7.43814 8.23603 7.52749 8.2353 7.61817L8.2353 7.88238C8.2353 8.10079 8.14853 8.31026 7.99409 8.46469C7.83965 8.61913 7.63018 8.7059 7.41177 8.7059H4.58823C4.36982 8.7059 4.16035 8.61913 4.00591 8.46469C3.85147 8.31026 3.7647 8.10079 3.7647 7.88238L3.76469 7.617C3.7644 7.5272 3.7437 7.43863 3.70416 7.358C3.66456 7.27722 3.60649 7.20606 3.5355 7.1508Z" fill="#FFB800"/>
<path fill-rule="evenodd" clip-rule="evenodd" d="M3.76465 9.64704C3.76465 9.38714 3.97534 9.17645 4.23524 9.17645H7.76465C8.02455 9.17645 8.23524 9.38714 8.23524 9.64704C8.23524 9.90694 8.02455 10.1176 7.76465 10.1176H4.23524C3.97534 10.1176 3.76465 9.90694 3.76465 9.64704Z" fill="#FFB800"/>
<path fill-rule="evenodd" clip-rule="evenodd" d="M5.99989 4.29413C6.25978 4.29413 6.47047 4.50482 6.47047 4.76472V7.2353C6.47047 7.4952 6.25978 7.70589 5.99989 7.70589C5.73999 7.70589 5.5293 7.4952 5.5293 7.2353V4.76472C5.5293 4.50482 5.73999 4.29413 5.99989 4.29413Z" fill="#FFF0B0"/>
<path fill-rule="evenodd" clip-rule="evenodd" d="M4.25502 3.02016C4.4388 2.83638 4.73676 2.83638 4.92053 3.02016L5.99954 4.09916L7.07855 3.02016C7.26232 2.83638 7.56029 2.83638 7.74406 3.02016C7.92784 3.20393 7.92784 3.50189 7.74406 3.68567L6.3323 5.09743C6.14852 5.28121 5.85056 5.28121 5.66678 5.09743L4.25502 3.68567C4.07124 3.50189 4.07124 3.20393 4.25502 3.02016Z" fill="#FFF0B0"/>
</svg>

<svg xmlns="http://www.w3.org/2000/svg" width="12" height="12" fill="none" xmlns:v="https://vecta.io/nano"><g fill="#ffb800"><path d="M3.536 7.151c-.476-.372-.861-.846-1.127-1.388S2.003 4.626 2 4.022C1.988 1.853 3.734.052 5.904.001a4 4 0 0 1 3.861 2.646 4 4 0 0 1-1.294 4.498l-.002.002a.6.6 0 0 0-.233.47v.264c0 .218-.087.428-.241.582s-.364.241-.582.241H4.588c-.218 0-.428-.087-.582-.241s-.241-.364-.241-.582v-.265c0-.09-.021-.178-.061-.259s-.098-.152-.169-.207z"/><path d="M3.765 9.647a.47.47 0 0 1 .471-.471h3.529a.47.47 0 1 1 0 .941H4.235a.47.47 0 0 1-.471-.471z" fill-rule="evenodd"/></g><g fill="#fff0b0"><path fill-rule="evenodd" d="M6 4.294a.47.47 0 0 1 .471.471v2.471a.47.47 0 1 1-.941 0V4.765A.47.47 0 0 1 6 4.294z"/><path fill-rule="evenodd" d="M4.255 3.02a.47.47 0 0 1 .666 0L6 4.099 7.079 3.02a.47.47 0 1 1 .666.666L6.332 5.097a.47.47 0 0 1-.666 0L4.255 3.686a.47.47 0 0 1 0-.666z"/></g></svg>
